X:4656
T:Noonday Feast, The
O:england
M:6/8
L:1/8
R:jig
K:ADor
Bd|:eAA BAG|EAA ABd|eAA BAB|d2A Bcd|
eAA BAG|~E3 AGE|GAB dge|dBA ABd:|
eaa g2e|dBG GBd|eaa g2e|dBG ABd|
eaa g2e dBG AGE|GAB dge|dBA ABd|
eaa g2e|dBG GBd|eaa fga|bag a2b-|b^ab g2e|
dBG AGE|GAB dge|dBA ABd||


